assets/images/official-logo-footer.svg

<svg width="162" height="57" viewBox="0 0 162 57" fill="none" xmlns="http://www.w3.org/2000/svg">
<path d="M39.0258 42.9522H3.88184C3.3287 42.9522 2.81507 42.8523 2.34095 42.6527C1.86684 42.453 1.45198 42.1834 1.0964 41.8439C0.760563 41.4845 0.493872 41.0652 0.296323 40.5859C0.0987745 40.1067 0 39.5875 0 39.0284V0H7.70441V35.1645H39.0258V42.9522Z" fill="#F8F8F8"/>
<path d="M78.6739 32.0194C78.6739 33.3573 78.5059 34.5654 78.1701 35.6437C77.8343 36.702 77.3898 37.6406 76.8367 38.4593C76.2835 39.258 75.6415 39.9469 74.9106 40.526C74.1796 41.0851 73.4092 41.5444 72.5992 41.9038C71.809 42.2633 70.9991 42.5328 70.1694 42.7126C69.3594 42.8723 68.589 42.9522 67.8581 42.9522H53.9605C52.8937 42.9522 51.7282 42.7625 50.4639 42.3831C49.1996 42.0037 48.0241 41.3847 46.9376 40.526C45.8709 39.6474 44.972 38.5192 44.2411 37.1414C43.5299 35.7436 43.1743 34.0363 43.1743 32.0194V21.4761C43.1743 19.4792 43.5299 17.7919 44.2411 16.4141C44.972 15.0163 45.8709 13.8881 46.9376 13.0294C48.0241 12.1508 49.1996 11.5218 50.4639 11.1424C51.7282 10.763 52.8937 10.5733 53.9605 10.5733H67.8581C69.8335 10.5733 71.5127 10.9327 72.8956 11.6516C74.2784 12.3705 75.3945 13.279 76.244 14.3773C77.0935 15.4556 77.7059 16.6337 78.0812 17.9117C78.4763 19.1897 78.6739 20.3778 78.6739 21.4761V32.0194ZM70.9695 21.536C70.9695 20.4577 70.7028 19.659 70.1694 19.1398C69.636 18.6206 68.8656 18.361 67.8581 18.361H54.0198C52.9925 18.361 52.2122 18.6306 51.6788 19.1697C51.1454 19.6889 50.8787 20.4577 50.8787 21.4761V32.0194C50.8787 33.0378 51.1454 33.8166 51.6788 34.3558C52.2122 34.8949 52.9925 35.1645 54.0198 35.1645H67.8581C68.9051 35.1645 69.6854 34.8949 70.199 34.3558C70.7126 33.8166 70.9695 33.0378 70.9695 32.0194V21.536Z" fill="#F8F8F8"/>
<path d="M120.1 46.0673C120.1 47.4052 119.932 48.6033 119.596 49.6616C119.26 50.7399 118.816 51.6784 118.263 52.4771C117.71 53.2959 117.067 53.9848 116.337 54.5439C115.606 55.123 114.835 55.5922 114.025 55.9517C113.235 56.3111 112.425 56.5707 111.595 56.7304C110.785 56.9101 110.015 57 109.284 57H95.3865V49.2123H109.284C110.331 49.2123 111.111 48.9427 111.625 48.4036C112.139 47.8644 112.395 47.0857 112.395 46.0673V21.4761C112.395 20.4577 112.139 19.6889 111.625 19.1697C111.111 18.6306 110.331 18.361 109.284 18.361H95.3865C94.4383 18.361 93.6876 18.6605 93.1344 19.2596C92.5813 19.8387 92.3047 20.5775 92.3047 21.4761V32.0194C92.3047 33.0378 92.5714 33.8166 93.1048 34.3558C93.6382 34.8949 94.4185 35.1645 95.4458 35.1645H109.284V42.9522H95.3865C94.6556 42.9522 93.8851 42.8723 93.0752 42.7126C92.2652 42.5328 91.4553 42.2633 90.6453 41.9038C89.8551 41.5444 89.0946 41.0851 88.3636 40.526C87.6327 39.9469 86.9907 39.258 86.4375 38.4593C85.8844 37.6406 85.4399 36.702 85.1041 35.6437C84.7682 34.5654 84.6003 33.3573 84.6003 32.0194V21.4761C84.6003 20.7373 84.6793 19.9585 84.8374 19.1398C85.0152 18.3211 85.2819 17.5124 85.6375 16.7136C85.993 15.8949 86.4474 15.1161 87.0005 14.3773C87.5734 13.6385 88.255 12.9895 89.0452 12.4304C89.8551 11.8713 90.7836 11.422 91.8306 11.0825C92.8776 10.743 94.0629 10.5733 95.3865 10.5733H109.284C110.015 10.5733 110.785 10.6632 111.595 10.8429C112.425 11.0026 113.235 11.2622 114.025 11.6217C114.835 11.9811 115.606 12.4503 116.337 13.0294C117.067 13.5885 117.71 14.2775 118.263 15.0962C118.816 15.8949 119.26 16.8234 119.596 17.8818C119.932 18.9401 120.1 20.1382 120.1 21.4761V46.0673Z" fill="#F8F8F8"/>
<path d="M162 32.0194C162 33.3573 161.832 34.5654 161.496 35.6437C161.16 36.702 160.716 37.6406 160.163 38.4593C159.61 39.258 158.968 39.9469 158.237 40.526C157.506 41.0851 156.735 41.5444 155.925 41.9038C155.135 42.2633 154.325 42.5328 153.496 42.7126C152.686 42.8723 151.915 42.9522 151.184 42.9522H137.287C136.22 42.9522 135.054 42.7625 133.79 42.3831C132.526 42.0037 131.35 41.3847 130.264 40.526C129.197 39.6474 128.298 38.5192 127.567 37.1414C126.856 35.7436 126.5 34.0363 126.5 32.0194V21.4761C126.5 19.4792 126.856 17.7919 127.567 16.4141C128.298 15.0163 129.197 13.8881 130.264 13.0294C131.35 12.1508 132.526 11.5218 133.79 11.1424C135.054 10.763 136.22 10.5733 137.287 10.5733H151.184C153.16 10.5733 154.839 10.9327 156.222 11.6516C157.605 12.3705 158.721 13.279 159.57 14.3773C160.42 15.4556 161.032 16.6337 161.407 17.9117C161.802 19.1897 162 20.3778 162 21.4761V32.0194ZM154.296 21.536C154.296 20.4577 154.029 19.659 153.496 19.1398C152.962 18.6206 152.192 18.361 151.184 18.361H137.346C136.319 18.361 135.538 18.6306 135.005 19.1697C134.472 19.6889 134.205 20.4577 134.205 21.4761V32.0194C134.205 33.0378 134.472 33.8166 135.005 34.3558C135.538 34.8949 136.319 35.1645 137.346 35.1645H151.184C152.231 35.1645 153.012 34.8949 153.525 34.3558C154.039 33.8166 154.296 33.0378 154.296 32.0194V21.536Z" fill="#F8F8F8"/>
</svg>

<svg xmlns="http://www.w3.org/2000/svg" width="162" height="57" fill="none"><path fill="#F8F8F8" d="M39.026 42.952H3.882a3.9 3.9 0 0 1-1.541-.3q-.711-.299-1.245-.808a4.1 4.1 0 0 1-.8-1.258A4.05 4.05 0 0 1 0 39.028V0h7.704v35.165h31.322zM78.674 32.02q0 2.006-.504 3.624-.504 1.587-1.333 2.815a9.6 9.6 0 0 1-1.926 2.067 11.4 11.4 0 0 1-2.312 1.378q-1.185.54-2.43.809-1.215.24-2.31.24H53.96q-1.6 0-3.497-.57a10.5 10.5 0 0 1-3.526-1.857q-1.6-1.318-2.697-3.385-1.067-2.096-1.067-5.122V21.476q0-2.995 1.067-5.062 1.096-2.097 2.697-3.385 1.63-1.317 3.526-1.887 1.896-.569 3.497-.569h13.897q2.963 0 5.038 1.079 2.073 1.078 3.348 2.725a10.4 10.4 0 0 1 1.837 3.535q.593 1.917.593 3.564zm-7.705-10.484q0-1.617-.8-2.396-.8-.78-2.31-.779h-13.84q-1.54 0-2.34.809-.8.779-.8 2.306V32.02q0 1.529.8 2.337t2.34.808h13.84q1.569 0 2.34-.808.77-.81.77-2.337zM120.1 46.067q0 2.007-.504 3.595-.504 1.617-1.333 2.815a8.7 8.7 0 0 1-1.926 2.067 10.7 10.7 0 0 1-2.312 1.408q-1.185.54-2.43.778-1.215.27-2.311.27H95.386v-7.788h13.898q1.57 0 2.341-.808.77-.81.77-2.337v-24.59q0-1.53-.77-2.307-.77-.81-2.341-.809H95.386q-1.421 0-2.252.899-.83.868-.83 2.216V32.02q0 1.529.8 2.337t2.342.808h13.838v7.788H95.386q-1.095 0-2.31-.24-1.215-.27-2.43-.808-1.185-.54-2.282-1.378a9.6 9.6 0 0 1-1.927-2.067q-.83-1.227-1.333-2.815-.504-1.618-.504-3.625V21.476q0-1.108.237-2.336.267-1.229.8-2.426a11.6 11.6 0 0 1 1.364-2.337 9.5 9.5 0 0 1 2.044-1.947q1.215-.838 2.786-1.348 1.57-.509 3.555-.509h13.898q1.096 0 2.311.27 1.245.24 2.43.779 1.215.54 2.312 1.407a8.7 8.7 0 0 1 1.926 2.067q.83 1.198 1.333 2.786.504 1.587.504 3.594zM162 32.02q0 2.006-.504 3.624-.504 1.587-1.333 2.815a9.6 9.6 0 0 1-1.926 2.067 11.4 11.4 0 0 1-2.312 1.378q-1.185.54-2.429.809-1.215.24-2.312.24h-13.897q-1.6 0-3.497-.57a10.5 10.5 0 0 1-3.526-1.857q-1.6-1.318-2.697-3.385-1.067-2.096-1.067-5.122V21.476q0-2.995 1.067-5.062 1.097-2.097 2.697-3.385a10.3 10.3 0 0 1 3.526-1.887q1.896-.569 3.497-.569h13.897q2.964 0 5.038 1.079t3.348 2.725a10.4 10.4 0 0 1 1.837 3.535q.593 1.917.593 3.564zm-7.704-10.484q0-1.617-.8-2.396-.8-.78-2.312-.779h-13.838q-1.541 0-2.341.809-.8.779-.8 2.306V32.02q0 1.529.8 2.337t2.341.808h13.838q1.571 0 2.341-.808.771-.81.771-2.337z"/></svg>
